assets/external-link-arrow.svg

<svg width="20" height="20" viewBox="0 0 20 20" fill="none" xmlns="http://www.w3.org/2000/svg">
<path d="M6.92188 0.0117188C6.88624 0.135273 6.85535 0.262372 6.83594 0.393555L6.80664 0.69043C6.79194 0.995269 6.82931 1.2835 6.90234 1.5498H1.53711V18.4629H18.4512V12.957C18.6989 13.0265 18.9565 13.0665 19.2188 13.0654C19.4888 13.0643 19.7456 13.0216 19.9883 12.9521V19.2314C19.9883 19.656 19.6442 19.9999 19.2197 20H0.768555C0.344073 19.9999 0 19.656 0 19.2314V0.780273C0.000226678 0.355956 0.344212 0.0118414 0.768555 0.0117188H6.92188ZM19.2031 0.000976562C19.371 0.00580553 19.6297 0.103304 19.7637 0.237305C19.8972 0.375429 20.0004 0.528766 19.999 0.796875V10.1816C20.0149 10.6198 19.6607 11.0138 19.21 11.0156C18.7832 11.0171 18.383 10.6464 18.3691 10.2197L18.4404 2.71777L7.79492 13.3633C7.47787 13.6803 6.96143 13.6782 6.6416 13.3584C6.32193 13.0386 6.31972 12.5221 6.63672 12.2051L17.2822 1.55957L9.65039 1.63086C9.22351 1.61707 8.8339 1.21535 8.85449 0.789062C8.87775 0.312419 9.2506 -0.00920182 9.68848 0L19.2031 0.000976562Z" fill="#E04E2B"/>
</svg>

<svg xmlns="http://www.w3.org/2000/svg" viewBox="0 0 20 20" aria-hidden="true"><path fill="#e04e2b" d="M6.922.012a3 3 0 0 0-.086.382l-.03.296a2.7 2.7 0 0 0 .096.86H1.537v16.913h16.914v-5.506c.248.07.505.11.768.108.27 0 .527-.043.77-.113v6.28a.77.77 0 0 1-.77.768H.77A.77.77 0 0 1 0 19.231V.781C0 .355.344.01.769.01zM19.203 0a.96.96 0 0 1 .56.236.73.73 0 0 1 .236.56v9.385a.81.81 0 0 1-.789.834c-.427.001-.827-.37-.84-.796l.07-7.502L7.795 13.363a.816.816 0 0 1-1.153-.005.816.816 0 0 1-.005-1.153L17.282 1.56l-7.632.07c-.426-.013-.816-.415-.796-.84A.81.81 0 0 1 9.688 0z"/></svg>
